X:59
T:Passacaille in B minor
C:Couperin, F.
M:3/4
L:1/8
Q:1/4=58
K:Bmin
|:B2|e4 de|f2 ed c2|d4 cd|e4 B2|
e4 fg|a2 gf e2|d4 cd|B4:|

